!!!COM: Mozart, Wolfgang Amadeus
!!!OPR: Divertimento in B-flat Major
!!!OTL:
!!!OMV: 1
!!!SCT: K 137
!!!SCA: Chronologisch-thematisches Verzeichnis sämtlicher Tonwerke Wolfgang Amade Mozarts (L. von Köchel; 1862, 2/1905, 3/1937, 1947)
!!!YOR: Breitkopf & Härtel Edition
!!!EED: Frances Bennion
!!!ENC: Frances Bennion
!!!CDT: 1756/1/27/-1791/12/5/
!!!OCY: Österreich
!!!YEC: Copyright (c) 1994, 2000 Center for Computer Assisted Research in the Humanities
!!!YEM: Rights to all derivative editions reserved.
!!!YEM: Refer to licensing agreement for further details.
!!!YEN: United States of America
**kern	**kern	**kern	**kern
*k[b-e-]	*k[b-e-]	*k[b-e-]	*k[b-e-]
*B-:	*B-:	*B-:	*B-:
*clefG	*clefG	*clefF	*clefC
*M3/4	*M3/4	*M3/4	*M3/4
*tb32	*tb32	*tb32	*tb32
=1	=1	=1	=1
4ff	2.r	2.r	2.r
4dd	.	.	.
4cc	.	.	.
=2	=2	=2	=2
8.b	4a-	4d	4F
32cc	.	.	.
32dd	.	.	.
4cc	4g	4e-	4E-
4r	4r	4r	4r
=3	=3	=3	=3
4gg	2.r	2.r	2.r
4ee-	.	.	.
4dd	.	.	.
=4	=4	=4	=4
8.cc#	4b-	4e	4G
32dd	.	.	.
32ee	.	.	.
4dd	4a	4f	4F
8r	4r	4r	4r
16dd	.	.	.
16ee-	.	.	.
=5	=5	=5	=5
2ee-	8r	4r	2G
.	16b-	.	.
.	16cc	.	.
.	8b-	4e-	.
.	8b-	.	.
4dd	8b-	4f	8F
.	8b-	.	8F
=6	=6	=6	=6
4cc	8b-	4g	8E
.	8b-	.	8E
4gg	8a	4c	8E-
.	8a	.	8E-
8ff	8b-	4d	8D
8bb-	16dd	.	8D
.	16ff	.	.
=7	=7	=7	=7
8gg	8ee-	8c	8E-
16ff	16dd	8g	8E-
16ee-	16cc	.	.
4dd	4b-	4f	8F
.	.	.	8F
4cc	4a	4e-	8FF
.	.	.	8FF
=8	=8	=8	=8
8b-	8b-	8d	4BB-
8ff	8dd	8b-	.
16r	16r	2r	4BB-
16f	16d	.	.
16f	16d	.	.
16f	16d	.	.
16g	16e-	.	4r
16f	16d	.	.
16e	16c#	.	.
16f	16d	.	.
=9	=9	=9	=9
8f	8e-	8c	4AA
8ff	8ee-	8cc	.
16r	16r	2r	4AA
16e-	16c	.	.
16e-	16c	.	.
16e-	16c	.	.
16d	16B	.	4r
16e-	16c	.	.
16f	16d	.	.
16e-	16c	.	.
=10	=10	=10	=10
8d	8B-	8F	4BB-
8ddd	8bb-	8f	.
8r	8r	2g	4G
8bb-	8dd	.	.
8r	8r	.	4E
8dd	8b-	.	.
=11	=11	=11	=11
8.ff	8.dd	4f	4F
16dd	16b-	.	.
4cc	4a	8r	8r
.	.	8c	8A
4r	4r	8d	8B-
.	.	8B-	8G
=12	=12	=12	=12
2.ccc	2.cc	16A	8F
.	.	16c	.
.	.	16A	8F
.	.	16c	.
.	.	16A	8F
.	.	16c	.
.	.	16A	8F
.	.	16c	.
.	.	16A	8F
.	.	16c	.
.	.	16A	8F
.	.	16c	.
=13	=13	=13	=13
4..ee	4..e	16B-	8G
.	.	16c	.
.	.	16B-	8G
.	.	16c	.
.	.	16G	8C
.	.	16c	.
.	.	16B-	8C
32ff	32f	16c	.
32gg	32g	.	.
8ff	8f	16A	8F
.	.	16c	.
8r	8r	16f	8F
.	.	16c	.
=14	=14	=14	=14
8gg	8g	16e	8C
.	.	16c	.
8r	8r	16e	8C
.	.	16c	.
8aa	8a	16f	8C
.	.	16c	.
8r	8r	16f	8C
.	.	16c	.
8bb-	8b-	16g	8C
.	.	16c	.
8r	8r	16e	8C
.	.	16g	.
=15	=15	=15	=15
8aa	8a	8f	4C
16gg	16g	16e	.
16aa	16a	16f	.
4gg	4g	4e	4CC
4r	4r	4r	4r
=16	=16	=16	=16
2.cc	16A	2.c	8FF
.	16c	.	.
.	16A	.	8FF
.	16c	.	.
.	16A	.	8FF
.	16c	.	.
.	16A	.	8FF
.	16c	.	.
.	16A	.	8FF
.	16c	.	.
.	16A	.	8FF
.	16c	.	.
=17	=17	=17	=17
4..e	16B-	4..E	8GG
.	16c	.	.
.	16B-	.	8GG
.	16c	.	.
.	16G	.	8CC
.	16B-	.	.
.	16c	.	8CC
32f	16B-	32F	.
32g	.	32G	.
8f	8A	8F	8FF
16ff	8a	[8f	8FF
16cc	.	.	.
=18	=18	=18	=18
16dd	16b-	8f]	8BB-
16d	16f	.	.
16b-	16g	8d	8BB-
16g	16B-	.	.
4f	4A	8c	8C
.	.	8c	8C
4e	4G	8c	8CC
.	.	8c	8CC
=19	=19	=19	=19
8f	8A	8c	4FF
32aa	32ff	8r	.
32bb-	32gg	.	.
16ccc	16aa	.	.
16r	16r	2cc	4AA
16cc	16a	.	.
16b-	16g	.	.
16a	16f	.	.
16g	16e	.	4C
16f	16d	.	.
16g	16e	.	.
16e	16c	.	.
=20	=20	=20	=20
8f	8A	4r	4DD
32ff	32dd	.	.
32gg	32ee	.	.
16aa	16ff	.	.
16r	16r	2a	4FF
16a	16f	.	.
16g	16e	.	.
16f	16d	.	.
16e-	16c	.	4AA
16g	16e-	.	.
16f	16d	.	.
16e-	16c	.	.
=21	=21	=21	=21
8d	8B-	4r	4BB-
32dd	32b-	.	.
32ee	32cc	.	.
16ff	16dd	.	.
16r	16r	2f	4D
16f	16d	.	.
16e	16c	.	.
16d	16B-	.	.
16c	16A	.	4F
16cc	16a	.	.
16cc	16a	.	.
16cc	16a	.	.
=22	=22	=22	=22
16cc	16a	4d	8BB-
16b-	16g	.	.
16dd	16b-	.	8BB-
16b-	16g	.	.
4a	4f	4c	8C
.	.	.	8C
4g	4e	4c	8C
.	.	.	8C
=23	=23	=23	=23
16f	8f	2c	4F
16aa	.	.	.
16ccc	32ff	.	.
.	32gg	.	.
16aa	32aa	.	.
.	32ff	.	.
16gg	8ee	.	4c
16ee	.	.	.
16gg	32cc	.	.
.	32dd	.	.
16ee	32ee	.	.
.	32cc	.	.
16gg	8ee	[4a	4c#
16g	.	.	.
16b-	32e	.	.
.	32f	.	.
16g	32g	.	.
.	32e	.	.
=24	=24	=24	=24
16f	8d	4a]	4d
16ff	.	.	.
16aa	32dd	.	.
.	32ee	.	.
16ff	32ff	.	.
.	32dd	.	.
16ee-	8cc	4f	4A
16cc	.	.	.
16ee-	32a	.	.
.	32b-	.	.
16cc	32cc	.	.
.	32b-	.	.
16ee-	8a	8c	4F
16e-	.	.	.
16g	32c	8A	.
.	32d	.	.
16e-	32e-	.	.
.	32c	.	.
=25	=25	=25	=25
16d	8B-	[2.F	4BB-
16dd	.	.	.
16ff	32b-	.	.
.	32cc	.	.
16dd	32dd	.	.
.	32b-	.	.
16cc	8a	.	4F
16a	.	.	.
16cc	32f	.	.
.	32e	.	.
16a	32f	.	.
.	32g	.	.
16cc	8a	.	4FF
16c	.	.	.
16e-	32A	.	.
.	32B-	.	.
16c	32c	.	.
.	32A	.	.
=26	=26	=26	=26
16e-	8B-	8.F]	4BB-
16d	.	.	.
16dd	16g	.	.
16gg	16b-	16d	.
4ff	4a	2c	4C
4ee	4g	.	4CC
=27	=27	=27	=27
4r	8b-	4r	4r
.	8g	.	.
4B-	4e	4G	4CC#
4B-	4e	4G	4CC#
=28	=28	=28	=28
2B-	2e	2G	2CC#
8A	8f	8F	8DD
8r	8r	8r	8r
=29	=29	=29	=29
4d	4f	4B-	4BB-
4bb- 4dd	4gg 4b- 4d	4g 4G	4GG
8r	4r	4r	4r
24dd	.	.	.
24b-	.	.	.
24g	.	.	.
=30	=30	=30	=30
8.e	4B-	8.G	4C
16g	.	16E	.
4f	4A	4F	4FF
4r	4r	4r	4r
=31	=31	=31	=31
8.g	4c	8.B-	4EE
16b-	.	16G	.
4a	4c	4F	4EE-
4r	4r	4r	4r
=32	=32	=32	=32
8.b-	4r	8.f	4DD
32cc	.	32e-	.
32dd	.	32d	.
4ee-	4f	4c	4AA
4r	4r	4r	4r
=33	=33	=33	=33
8.dd	8.f	4r	8.BB-
32ee-	32e-	.	32C
32ff	32d	.	32D
4gg	4c	8.c	4E-
.	.	32e-	.
.	.	32f	.
4b-	4c	4g	4E
=34	=34	=34	=34
8.b-	4c	4f	4F
32a	.	.	.
32b-	.	.	.
4a	4c	4F	4FF
4r	4r	4r	4r
=35	=35	=35	=35
4ff	2.r	2.r	2.r
4dd	.	.	.
4cc	.	.	.
=36	=36	=36	=36
8.b	4a-	4d	4F
32cc	.	.	.
32dd	.	.	.
4cc	4g	4e-	4E-
4r	4r	4r	4r
=37	=37	=37	=37
4d	4c	4A-	4F
4.d	4.B	2G	4G
.	.	.	4GG
16e-	16c	.	.
16f	16d	.	.
=38	=38	=38	=38
8.e-	8.c	4G	4C
16d	16B	.	.
4c	4c	2r	8r
.	.	.	8c
4r	4r	.	8G
.	.	.	8E-
=39	=39	=39	=39
4gg	2.r	2.r	4C
4ee-	.	.	2r
4dd	.	.	.
=40	=40	=40	=40
8.cc#	4b-	4e	4G
32dd	.	.	.
32ee	.	.	.
4dd	4a	4f	4F
4r	4r	4r	4r
=41	=41	=41	=41
4e	4d	4B-	4G
4.e	4.c#	2A	4A
.	.	.	4AA
16f	16d	.	.
16g	16e	.	.
=42	=42	=42	=42
8f	8d	8A	4D
8ff	8dd	8a	.
16r	16r	2r	4D
16f	16d	.	.
16f	16d	.	.
16f	16d	.	.
16g	16e	.	4C
16f	16d	.	.
16e	16c#	.	.
16f	16d	.	.
=43	=43	=43	=43
8a-	8d	8B	4BB
8aa-	8ff	8d	.
16r	16r	2r	4BB
16a-	16f	.	.
16a-	16f	.	.
16a-	16f	.	.
16a-	16f	.	4BB
16g	16e-	.	.
16g	16e-	.	.
16f	16d	.	.
=44	=44	=44	=44
8e-	8c	8G	4C
8ee-	8cc	8g	.
16r	16r	2r	4C
16e-	16c	.	.
16e-	16c	.	.
16e-	16c	.	.
16f	16d	.	4BB-
16e-	16c	.	.
16d	16B	.	.
16e-	16c	.	.
=45	=45	=45	=45
8e-	8c	8F	4AA
8gg	8ee-	8c	.
16r	16r	2r	4AA
16g	16e-	.	.
16g	16e-	.	.
16g	16e-	.	.
16f	16d	.	4AA
16e-	16c	.	.
16d	16B	.	.
16e-	16c	.	.
=46	=46	=46	=46
8d	8B-	8F	4AA-
8ff	8dd	8b-	.
16r	16r	2r	4AA-
16d	16B-	.	.
16d	16B-	.	.
16d	16B-	.	.
16f	16d	.	4AA-
16d	16B-	.	.
16a-	16f	.	.
16f	16d	.	.
=47	=47	=47	=47
8e-	8B-	8G	4GG
8bb-	8ee-	8g	.
16r	16r	2r	4G
16e-	16B-	.	.
16e-	16B-	.	.
16e-	16B-	.	.
16g	16e-	.	4G
16e-	16B-	.	.
16b-	16g	.	.
16g	16e-	.	.
=48	=48	=48	=48
8f	8B-	8A-	4D
8aa-	8ff	8b-	.
16r	16r	2r	4D
16a-	16f	.	.
16a-	16f	.	.
16a-	16f	.	.
16cc	16a-	.	4D
16b-	16g	.	.
16b-	16g	.	.
16a-	16f	.	.
=49	=49	=49	=49
8g	8e-	8B-	4E-
8gg	8b-	8e-	.
8r	8r	4e-	4EE-
8bb-	8gg	.	.
8r	8r	4g	4EE
8dd	8b-	.	.
=50	=50	=50	=50
8.ff	8.dd	4f	4FF
16dd	16b-	.	.
4cc	4a	8r	8r
.	.	8g	8E-
4r	4r	8f	8D
.	.	8e-	8C
=51	=51	=51	=51
2.ff	2.f	16d	8BB-
.	.	16f	.
.	.	16d	8BB-
.	.	16f	.
.	.	16d	8BB-
.	.	16f	.
.	.	16d	8BB-
.	.	16f	.
.	.	16d	8BB-
.	.	16f	.
.	.	16d	8BB-
.	.	16f	.
=52	=52	=52	=52
4..a	4..A	16e-	8C
.	.	16f	.
.	.	16e-	8C
.	.	16f	.
.	.	16c	8FF
.	.	16f	.
.	.	16e-	8FF
32b-	32B-	16f	.
32cc	32c	.	.
8b-	8B-	16d	8BB-
.	.	16f	.
8r	8r	16B-	8BB-
.	.	16f	.
=53	=53	=53	=53
8cc	8c	16A	8F
.	.	16f	.
8r	8r	16c	8F
.	.	16f	.
8dd	8d	16B-	8F
.	.	16f	.
8r	8r	16d	8F
.	.	16f	.
8ee-	8e-	16c	8F
.	.	16f	.
8r	8r	16A	8F
.	.	16f	.
=54	=54	=54	=54
8dd	8d	8B-	4F
16cc	16c	16A	.
16dd	16d	16B-	.
4cc	4c	4A	4FF
4r	4r	4r	4r
=55	=55	=55	=55
2.ff	2.f	16D	8BB-
.	.	16F	.
.	.	16D	8BB-
.	.	16F	.
.	.	16D	8BB-
.	.	16F	.
.	.	16D	8BB-
.	.	16F	.
.	.	16D	8BB-
.	.	16F	.
.	.	16D	8BB-
.	.	16F	.
=56	=56	=56	=56
4..a	4..A	16E-	8C
.	.	16F	.
.	.	16E-	8C
.	.	16F	.
.	.	16C	8FF
.	.	16F	.
.	.	16E-	8FF
32b-	32B-	16F	.
32cc	32c	.	.
4b-	8B-	8D	8BB-
.	16d	8B-	8BB-
.	16f	.	.
=57	=57	=57	=57
8g	8e-	8B-	8EE-
16f	16d	8G	8EE-
16e-	16c	.	.
4d	4B-	8F	8FF
.	.	8F	8FF
4c	4A	8F	8FF
.	.	8F	8FF
=58	=58	=58	=58
8B-	8B-	4F	4BB-
32bb-	32dd	.	.
32ccc	32ee-	.	.
16ddd	16ff	.	.
16r	16r	2f	4D
16ff	16dd	.	.
16ee-	16cc	.	.
16dd	16b-	.	.
16cc	16a	.	4F
16b-	16g	.	.
16cc	16a	.	.
16a	16f	.	.
=59	=59	=59	=59
8b-	8d	4r	4GG
32gg	32b-	.	.
32aa	32cc	.	.
16bb-	16dd	.	.
16r	16r	2d	4BB-
16dd	16b-	.	.
16cc	16a	.	.
16b-	16g	.	.
16a-	16f	.	4D
16cc	16a-	.	.
16b-	16g	.	.
16a-	16f	.	.
=60	=60	=60	=60
8g	8e-	4r	4EE-
32gg	32ee-	.	.
32aa	32ff	.	.
16bb-	16gg	.	.
16r	16r	[2B-	4GG
16b-	16g	.	.
16a	16f	.	.
16g	16e-	.	.
16f	16d	.	4BB-
16ff	16dd	.	.
16ff	16dd	.	.
16ff	16dd	.	.
=61	=61	=61	=61
16ff	16dd	8B-]	8E-
16ee-	16cc	.	.
16gg	16ee-	8g	8E-
16ee-	16cc	.	.
4dd	4b-	8f	8F
.	.	8f	8F
4cc	4a	8f	8FF
.	.	8f	8FF
=62	=62	=62	=62
16b-	8b-	2f	4BB-
16dd	.	.	.
16ff	32b-	.	.
.	32cc	.	.
16dd	32dd	.	.
.	32b-	.	.
16cc	8a	.	4F
16a	.	.	.
16cc	32a	.	.
.	32b-	.	.
16a	32a	.	.
.	32b-	.	.
16ee-	8cc	4a	4F#
16cc	.	.	.
16ee-	32a	.	.
.	32b-	.	.
16cc	32cc	.	.
.	32a	.	.
=63	=63	=63	=63
16b-	8g	4d	4G
16bb-	.	.	.
16ddd	32g	.	.
.	32a	.	.
16bb-	32b-	.	.
.	32g	.	.
16aa-	8f	4B-	4D
16ff	.	.	.
16aa-	32d	.	.
.	32e-	.	.
16ff	32f	.	.
.	32d	.	.
16aa-	8f	4d	4BB-
16a-	.	.	.
16cc	32f	.	.
.	32g	.	.
16a-	32a-	.	.
.	32f	.	.
=64	=64	=64	=64
16g	8e-	2B-	4E-
16gg	.	.	.
16bb-	32ee-	.	.
.	32ff	.	.
16gg	32gg	.	.
.	32ee-	.	.
16ff	8dd	.	4BB-
16dd	.	.	.
16ff	32b-	.	.
.	32a	.	.
16dd	32b-	.	.
.	32cc	.	.
16ff	8dd	8b-	4B-
16f	.	.	.
16b-	32d	8f	.
.	32e-	.	.
16a-	32f	.	.
.	32d	.	.
=65	=65	=65	=65
8g	8e-	8B-	4E-
16f	16d	8G	.
16e-	16c	.	.
4d	4B-	4F	4F
4c	4A	4F	4FF
=66	=66	=66	=66
8ee-	4r	4r	4r
8cc	.	.	.
4a	4e-	4c	4FF#
4a	4e-	4c	4FF#
=67	=67	=67	=67
2a	2e-	2c	2FF#
8b-	8d	8B-	8GG
8r	8r	8r	8r
=68	=68	=68	=68
4g	4B-	4r	4r
4gg 4b- 4e-	4ee- 4g 4B-	4E-	4EE-
8r	4r	4r	4r
24g	.	.	.
24e-	.	.	.
24c	.	.	.
=69	=69	=69	=69
8.A	8.c	4F	4FF
16c	16e-	.	.
4B-	4d	4F	4BB-
4r	4r	4r	4r
==	==	==	==
*-	*-	*-	*-
!!!RWG1: This file contains only pitch and duration data.
!!!RWG2: Transposing instruments are not transposed.
!!!RWG3: Spines may have incompatible meters.
!!!RWG4: Durations of rests and tied notes may be interpreted.
!!!RWG: Key is interpreted using the Humdrum key tool.
!!!AFT: stage1
!!!END: 1997/04/15
!!format changes:
!!content changes:
!!public access: complete
!!!KEY: 4250258226
!!!EMD: Converted from MuseData to Humdrum Dec 16, 2000, by Andreas Kornstaedt using muse2kern.
